file/kelloggs.svg

<svg clip-rule="evenodd" fill-rule="evenodd" stroke-linejoin="round" stroke-miterlimit="1.41421" viewBox="0 0 560 400" xmlns="http://www.w3.org/2000/svg"><g fill="#d31245" fill-rule="nonzero" transform="matrix(3.73549 0 0 -3.73549 -1699.15 2961.16)"><path d="m573.96 744.84c-1.69.003-3.223-1.36-5.13-2.947-1.75-1.454-5.33-5.13-8.596-7.224.91 1.43 3.104 4.52 3.434 5.97.347 1.52-.767 2.11-2.3 1.17-1.67-1.03-3.263-5.98-5.622-5.98-.43 0-.73.21-.726.69.01 1.45 2.255 4.34 6.285 5.93.625.25.865.653.868 1 0 .11-.018.844-1.256.844-3.98 0-9.352-4.645-10.105-8.206-.775-.78-2.17-1.936-3.938-2.69 1.996 2.827 3.714 5.1 4.615 7.46 1.04 2.75-.44 3.11-1.96 2.306-1.48-.782-2.52-2.953-2.96-3.78-.43-.82-.8-1.87-2.1-2.915s-2.65-.87-1.698 1.17c.853 1.822 2.77 3.733 4.42 4.613.39.21.733.334.72.86-.02.835-.986 1.414-2.363.82-1.87-.81-2.768-1.35-4.353-1.35-1.258 0-1.91.34-2.447.563-.72.306-1.25.2-1.53.11-.252-.086-.65-.33-.983-.695-.264-.29-.487-.765-.54-1.07-.37-2.23-2.322-6.23-3.756-6.23-.495 0-1.04.14-.9 1.28.23 1.866 2.48 4.388 3 4.89.52.506 1.5.85 1.57 1.41.06.47-.226.995-1.15.995-3.033 0-7.086-4.204-7.49-7.98-.47-.44-1.036-.87-1.683-.87-1.4 0-1.798 1.31-1.698 2.35 3.684 3.324 10.672 10.735 10.883 16.01.05 1.26-.564 1.89-1.596 1.89-2.6 0-6.244-3.8-8.51-6.73-2.788-3.608-4.504-7.965-5.11-11.268-2.04-1.77-2.868-1.888-3.756-1.888-1.234 0-1.665.893-1.626 1.595 3.44 3.126 9.42 10.574 9.54 14.255.036 1.09-.58 1.604-1.683 1.604-2.345 0-5.666-2.475-8.054-5.734-2.385-3.26-3.932-7.094-4.37-10.57-1.785-1.604-3.12-1.93-4.22-1.93-.665 0-1.153.468-1.27.664 1.58.912 5.18 3.2 5.18 6.61 0 1.694-1.143 2.45-2.28 2.45-2.892 0-7.44-3.604-7.41-8.578 0-.088.014-.394.03-.505-1.31-.45-2.212-.91-2.004-1.852.19-.854 1.25-.81 2.63-.323.318-.59 1.67-1.563 3.58-1.563 2.586 0 4.56 1.227 6.12 2.56.655-1.535 2.27-2.34 3.96-2.34 2.05 0 4.08 1.39 5.68 2.65.186-1.177 1.383-3.01 3.454-3.01 1.89 0 3.334 1.1 4.475 2.29.3-1.2 1.4-2.15 2.834-2.15 4.783 0 7.465 6.77 8.083 9.2.08.31.376.38.58.307.89-.31 1.326-.464 2.45-.336-1.82-1.43-3.424-3.87-3.424-5.653 0-1.78 1.543-2.607 2.67-2.607 1.13 0 2.624.73 3.607 1.65-.26-.524-.61-1.325-1.17-1.89-1.03-.283-4.05-1.373-5.97-2.54-1.82-1.11-3.58-2.874-3.58-4.904 0-1.086.89-2.36 2.983-2.36 3.518 0 5.98 2.3 9.3 8.34 2.75 1.153 4.4 2.23 5.48 3.145.474-.826 1.386-1.21 2.3-1.21 1.35 0 2.16.39 3.25 1.173-.15-.37-.39-.926-.76-1.42-1.966-.818-4.327-1.9-5.536-2.63-3.225-1.944-3.94-3.687-3.94-5.06 0-.84.72-2.3 2.893-2.3 4.7 0 7.61 5.845 9.506 9.15 1.39.737 3.376 2.104 5.417 3.67-.07-.25-.103-.51-.103-.805 0-1.467 1.33-2.847 3.51-2.847 4.307 0 5.647 3.174 5.594 6.6-.02 1.12-.185 2.012-.2 2.41-.04 1.046.308 1.61 1.26 1.61.96 0 1.61.17 1.61.99 0 1.135-.81 1.65-1.91 1.65m-43.4 6.08c.123 0 .174-.11.17-.28-.037-1.35-3.51-6.805-6.723-9.98 1.934 5.685 5.79 10.26 6.55 10.26m-27.462-13.684c.14 2.423 2.06 4.29 2.818 4.29.28 0 .41-.16.41-.493 0-.864-1.16-2.67-3.223-3.797m16.32 11.68c.145 0 .207-.113.202-.297-.025-.998-2.525-5.58-5.734-8.755 1.686 5.15 4.43 9.05 5.53 9.05m17.557-23.46c-.246 0-.37.16-.37.396 0 1.473 3.27 3.214 4.985 3.843-.74-1.198-3.456-4.24-4.618-4.24m13.09-.08c-.24 0-.33.144-.33.38 0 1.3 2.964 3.314 4.677 3.942-.89-1.54-3.365-4.32-4.35-4.32m17.865 9.36c-.206 0-.52.05-.52.743 0 .504-.24 1.062-1.118 1.062-.12 0-.25-.01-.398-.035 1.88 1.49 3.35 3.13 4.72 4.24-.28-3.39-1.09-6.01-2.69-6.01"/><path d="m566.277 745.468c-.063-.595-.726-.862-.784-1.394-.033-.31.186-.515.572-.51.986.01 3.63 1.536 3.86 3.91.116 1.197-.632 2.236-1.937 2.236-1.32 0-2.514-1.238-2.625-2.278-.107-1.017.975-1.385.914-1.964m-68.717-16.742c-.847.044-1.244 1.055-1.244 2.28 0 1.347.87 4.265 1.215 5.646.35 1.393.5 3.646-.76 4.938 4.79 1.927 11.88 8.49 12.79 9.923.91 1.435 1.09 3.26-.17 4.172-1.25.912-3.3-.278-4.51-2.02-3.33-4.802-5.34-7.146-7.61-9.12-1.77-1.54-2.63-1.565-3.48-1.683 0 0 3.27 5.353 4.49 6.96 1.465 1.922-.34 2.64-2.09 1.426-.355-.247-3.122-2.16-6.474-3.89-5.97-3.08-7.407-4.5-7.407-6.348 0-.82.57-1.852 1.77-1.852 2.34 0 4.654 4.182 5.787 5.223.44.41 1.463 1.3 1.86 1.3.13 0 .22-.08.22-.33 0-.8-1.553-3.07-3.96-5.67-3.492-3.77-6.35-5.29-6.35-7.7 0-1.57 1.18-2.42 2.456-2.42 2.69 0 4.49 3.59 5.566 5.37.43.71 2.803 5.133 3.303 6.09.52-.277.84-.854.67-2.026-.32-2.11-2.2-4.666-2.2-8.23 0-2.91 2.69-3.823 3.77-3.825.998 0 2.318.385 2.646 1.384.04.15-.01.403-.276.42m79.518 16.53c.56 0 .92-.36.92-.923 0-.56-.36-.92-.92-.92-.565 0-.923.36-.923.92 0 .566.356.928.922.928m0-1.62c.425 0 .694.273.694.7s-.27.696-.694.696c-.428 0-.697-.27-.697-.694s.27-.7.694-.7m.06 1.17c.143 0 .304-.07.304-.278 0-.138-.09-.22-.19-.26.064-.09.114-.218.19-.218h.053c.01-.01.02-.03.02-.07 0-.064-.047-.11-.14-.11-.18 0-.2.214-.32.37h-.107v-.35c-.02-.014-.07-.02-.11-.02-.06 0-.11.01-.11.1v.824c.02.01.06.014.108.014h.3zm-.187-.17v-.23h.137c.096 0 .15.045.15.12 0 .07-.05.11-.13.11h-.156z"/></g></svg>

<?xml version="1.0" encoding="UTF-8" standalone="no"?>
<!DOCTYPE svg PUBLIC "-//W3C//DTD SVG 1.1//EN" "http://www.w3.org/Graphics/SVG/1.1/DTD/svg11.dtd">
<svg width="100%" height="100%" viewBox="0 0 560 400" version="1.1" xmlns="http://www.w3.org/2000/svg" xmlns:xlink="http://www.w3.org/1999/xlink" xml:space="preserve" xmlns:serif="http://www.serif.com/" style="fill-rule:evenodd;clip-rule:evenodd;stroke-linejoin:round;stroke-miterlimit:1.41421;">
    <g transform="matrix(3.73549,0,0,-3.73549,-1699.15,2961.16)">
        <path d="M573.96,744.84C572.27,744.843 570.737,743.48 568.83,741.893C567.08,740.439 563.5,736.763 560.234,734.669C561.144,736.099 563.338,739.189 563.668,740.639C564.015,742.159 562.901,742.749 561.368,741.809C559.698,740.779 558.105,735.829 555.746,735.829C555.316,735.829 555.016,736.039 555.02,736.519C555.03,737.969 557.275,740.859 561.305,742.449C561.93,742.699 562.17,743.102 562.173,743.449C562.173,743.559 562.155,744.293 560.917,744.293C556.937,744.293 551.565,739.648 550.812,736.087C550.037,735.307 548.642,734.151 546.874,733.397C548.87,736.224 550.588,738.497 551.489,740.857C552.529,743.607 551.049,743.967 549.529,743.163C548.049,742.381 547.009,740.21 546.569,739.383C546.139,738.563 545.769,737.513 544.469,736.468C543.169,735.423 541.819,735.598 542.771,737.638C543.624,739.46 545.541,741.371 547.191,742.251C547.581,742.461 547.924,742.585 547.911,743.111C547.891,743.946 546.925,744.525 545.548,743.931C543.678,743.121 542.78,742.581 541.195,742.581C539.937,742.581 539.285,742.921 538.748,743.144C538.028,743.45 537.498,743.344 537.218,743.254C536.966,743.168 536.568,742.924 536.235,742.559C535.971,742.269 535.748,741.794 535.695,741.489C535.325,739.259 533.373,735.259 531.939,735.259C531.444,735.259 530.899,735.399 531.039,736.539C531.269,738.405 533.519,740.927 534.039,741.429C534.559,741.935 535.539,742.279 535.609,742.839C535.669,743.309 535.383,743.834 534.459,743.834C531.426,743.834 527.373,739.63 526.969,735.854C526.499,735.414 525.933,734.984 525.286,734.984C523.886,734.984 523.488,736.294 523.588,737.334C527.272,740.658 534.26,748.069 534.471,753.344C534.521,754.604 533.907,755.234 532.875,755.234C530.275,755.234 526.631,751.434 524.365,748.504C521.577,744.896 519.861,740.539 519.255,737.236C517.215,735.466 516.387,735.348 515.499,735.348C514.265,735.348 513.834,736.241 513.873,736.943C517.313,740.069 523.293,747.517 523.413,751.198C523.449,752.288 522.833,752.802 521.73,752.802C519.385,752.802 516.064,750.327 513.676,747.068C511.291,743.808 509.744,739.974 509.306,736.498C507.521,734.894 506.186,734.568 505.086,734.568C504.421,734.568 503.933,735.036 503.816,735.232C505.396,736.144 508.996,738.432 508.996,741.842C508.996,743.536 507.853,744.292 506.716,744.292C503.824,744.292 499.276,740.688 499.306,735.714C499.306,735.626 499.32,735.32 499.336,735.209C498.026,734.759 497.124,734.299 497.332,733.357C497.522,732.503 498.582,732.547 499.962,733.034C500.28,732.444 501.632,731.471 503.542,731.471C506.128,731.471 508.102,732.698 509.662,734.031C510.317,732.496 511.932,731.691 513.622,731.691C515.672,731.691 517.702,733.081 519.302,734.341C519.488,733.164 520.685,731.331 522.756,731.331C524.646,731.331 526.09,732.431 527.231,733.621C527.531,732.421 528.631,731.471 530.065,731.471C534.848,731.471 537.53,738.241 538.148,740.671C538.228,740.981 538.524,741.051 538.728,740.978C539.618,740.668 540.054,740.514 541.178,740.642C539.358,739.212 537.754,736.772 537.754,734.989C537.754,733.209 539.297,732.382 540.424,732.382C541.554,732.382 543.048,733.112 544.031,734.032C543.771,733.508 543.421,732.707 542.861,732.142C541.831,731.859 538.811,730.769 536.891,729.602C535.071,728.492 533.311,726.728 533.311,724.698C533.311,723.612 534.201,722.338 536.294,722.338C539.812,722.338 542.274,724.638 545.594,730.678C548.344,731.831 549.994,732.908 551.074,733.823C551.548,732.997 552.46,732.613 553.374,732.613C554.724,732.613 555.534,733.003 556.624,733.786C556.474,733.416 556.234,732.86 555.864,732.366C553.898,731.548 551.537,730.466 550.328,729.736C547.103,727.792 546.388,726.049 546.388,724.676C546.388,723.836 547.108,722.376 549.281,722.376C553.981,722.376 556.891,728.221 558.787,731.526C560.177,732.263 562.163,733.63 564.204,735.196C564.134,734.946 564.101,734.686 564.101,734.391C564.101,732.924 565.431,731.544 567.611,731.544C571.918,731.544 573.258,734.718 573.205,738.144C573.185,739.264 573.02,740.156 573.005,740.554C572.965,741.6 573.313,742.164 574.265,742.164C575.225,742.164 575.875,742.334 575.875,743.154C575.875,744.289 575.065,744.804 573.965,744.804M530.565,750.884C530.688,750.884 530.739,750.774 530.735,750.604C530.698,749.254 527.225,743.799 524.012,740.624C525.946,746.309 529.802,750.884 530.562,750.884M503.1,737.2C503.24,739.623 505.16,741.49 505.918,741.49C506.198,741.49 506.328,741.33 506.328,740.997C506.328,740.133 505.168,738.327 503.105,737.2M519.425,748.88C519.57,748.88 519.632,748.767 519.627,748.583C519.602,747.585 517.102,743.003 513.893,739.828C515.579,744.978 518.323,748.878 519.423,748.878M536.98,725.418C536.734,725.418 536.61,725.578 536.61,725.814C536.61,727.287 539.88,729.028 541.595,729.657C540.855,728.459 538.139,725.417 536.977,725.417M550.067,725.337C549.827,725.337 549.737,725.481 549.737,725.717C549.737,727.017 552.701,729.031 554.414,729.659C553.524,728.119 551.049,725.339 550.064,725.339M567.929,734.699C567.723,734.699 567.409,734.749 567.409,735.442C567.409,735.946 567.169,736.504 566.291,736.504C566.171,736.504 566.041,736.494 565.893,736.469C567.773,737.959 569.243,739.599 570.613,740.709C570.333,737.319 569.523,734.699 567.923,734.699" style="fill:rgb(211,18,69);fill-rule:nonzero;"/>
        <path d="M566.277,745.468C566.214,744.873 565.551,744.606 565.493,744.074C565.46,743.764 565.679,743.559 566.065,743.564C567.051,743.574 569.695,745.1 569.925,747.474C570.041,748.671 569.293,749.71 567.988,749.71C566.668,749.71 565.474,748.472 565.363,747.432C565.256,746.415 566.338,746.047 566.277,745.468M497.56,728.726C496.713,728.77 496.316,729.781 496.316,731.006C496.316,732.353 497.186,735.271 497.531,736.652C497.881,738.045 498.031,740.298 496.771,741.59C501.561,743.517 508.651,750.08 509.561,751.513C510.471,752.948 510.651,754.773 509.391,755.685C508.141,756.597 506.091,755.407 504.881,753.665C501.551,748.863 499.541,746.519 497.271,744.545C495.501,743.005 494.641,742.98 493.791,742.862C493.791,742.862 497.061,748.215 498.281,749.822C499.746,751.744 497.941,752.462 496.191,751.248C495.836,751.001 493.069,749.088 489.717,747.358C483.747,744.278 482.31,742.858 482.31,741.01C482.31,740.19 482.88,739.158 484.08,739.158C486.42,739.158 488.734,743.34 489.867,744.381C490.307,744.791 491.33,745.681 491.727,745.681C491.857,745.681 491.947,745.601 491.947,745.351C491.947,744.551 490.394,742.281 487.987,739.681C484.495,735.911 481.637,734.391 481.637,731.981C481.637,730.411 482.817,729.561 484.093,729.561C486.783,729.561 488.583,733.151 489.659,734.931C490.089,735.641 492.462,740.064 492.962,741.021C493.482,740.744 493.802,740.167 493.632,738.995C493.312,736.885 491.432,734.329 491.432,730.765C491.432,727.855 494.122,726.942 495.202,726.94C496.2,726.94 497.52,727.325 497.848,728.324C497.888,728.474 497.838,728.727 497.572,728.744M577.09,745.274C577.65,745.274 578.01,744.914 578.01,744.351C578.01,743.791 577.65,743.431 577.09,743.431C576.525,743.431 576.167,743.791 576.167,744.351C576.167,744.917 576.523,745.279 577.089,745.279M577.089,743.659C577.514,743.659 577.783,743.932 577.783,744.359C577.783,744.786 577.513,745.055 577.089,745.055C576.661,745.055 576.392,744.785 576.392,744.361C576.392,743.937 576.662,743.661 577.086,743.661M577.146,744.831C577.289,744.831 577.45,744.761 577.45,744.553C577.45,744.415 577.36,744.333 577.26,744.293C577.324,744.203 577.374,744.075 577.45,744.075L577.503,744.075C577.513,744.065 577.523,744.045 577.523,744.005C577.523,743.941 577.476,743.895 577.383,743.895C577.203,743.895 577.183,744.109 577.063,744.265L576.956,744.265L576.956,743.915C576.936,743.901 576.886,743.895 576.846,743.895C576.786,743.895 576.736,743.905 576.736,743.995L576.736,744.819C576.756,744.829 576.796,744.833 576.844,744.833L577.144,744.833L577.146,744.831ZM576.959,744.661L576.959,744.431L577.096,744.431C577.192,744.431 577.246,744.476 577.246,744.551C577.246,744.621 577.196,744.661 577.116,744.661L576.96,744.661L576.959,744.661Z" style="fill:rgb(211,18,69);fill-rule:nonzero;"/>
    </g>
</svg>
